X: 42279
T: Weaver's Delight, The
R: polka
M: 2/4
K: Gmajor
FG/F/ ED|dc/d/ ed|cA AF|G2 FE|
FG/F/ ED|dc/d/ ed|cA B^G|1 A2 G2:|2 A2 Af/g/||
|:af ge|fd e>d|cd ef|g2 fg|
af ge|fd e>d|cA B^G|1 A2 Af/g/:|2 A2 G2||

